X: 19
T: Missa Se la face ay pale / Sanctus
N: Derived from Duf1005d-Missa_Se_la_face_ay_pale-Sanctus.krn
C: Guillaume Du Fay
%%abc-version 2.0
%%abcx-abcm2ps-target-version 5.9.1 (29 Sep 2008)
%%abc-creator hum2abc beta
%%abcx-conversion-date 2019/02/16 20:31:47
%%abc-edited-by Jesse Rodin
%%abc-edited-by Jesse Rodin 8/28/2013
%%abcx-initial-encoding-date 2013/11/21/
%%humdrum-veritas 548123850
%%humdrum-veritas-data 3766245731
%%linebreak <none>
%%barnumbers 0
L: 1/4
M: 3/1
Q: 1/2=120
%%staves [1 2 3 4]
V: 1 clef=treble
V: 2 clef=treble-8
V: 3 clef=treble-8
V: 4 clef=bass
K: C
[V:1] c6B2A4 | 
[V:2] c12 | 
[V:3] z12 | 
[V:4] z12 | 
[V:1] G4c6B2 | 
[V:2] c6B2A4 | 
[V:3] z12 | 
[V:4] z12 | 
[V:1] B4A2G2E4 | 
[V:2] G4c8 | 
[V:3] z12 | 
[V:4] z12 | 
[V:1] D8E2D2 | 
[V:2] B4G8 | 
[V:3] z12 | 
[V:4] z12 | 
[V:1] G4A2^F4E2 | 
[V:2] B4A8 | 
[V:3] z12 | 
[V:4] z12 | 
[V:1] G4z4B2c2 | 
[V:2] G12 | 
[V:3] z12 | 
[V:4] z12 | 
[V:1] d4e6d2 | 
[V:2] z4c6B2 | 
[V:3] z12 | 
[V:4] z12 | 
[V:1] e4c2B2d3c | 
[V:2] c2d2e4f2g2- | 
[V:3] z12 | 
[V:4] z12 | 
[V:1] B2A4d4^c2 | 
[V:2] g2a2f2d2e4 | 
[V:3] z12 | 
[V:4] z12 | 
[V:1] d4z2G2A2B2 | 
[V:2] d4g4f2g2- | 
[V:3] z12 | 
[V:4] z12 | 
[V:1] G4F2G2AGFE | 
[V:2] g2c2d2e2c4 | 
[V:3] z12 | 
[V:4] z12 | 
[V:1] D2E2C2c4B2 | 
[V:2] B2c4e2d4 | 
[V:3] z12 | 
[V:4] z12 | 
[V:1] c4z4z4 | 
[V:2] c12 | 
[V:3] c12- | 
[V:4] C,12- | 
[V:1] G8A4 | 
[V:2] z4e8 | 
[V:3] c4c8 | 
[V:4] C,12 | 
[V:1] B2G3FE2D4 | 
[V:2] d4e2g4f2 | 
[V:3] B12- | 
[V:4] G,12 | 
[V:1] G4A2B2c4- | 
[V:2] e2d2f6e2 | 
[V:3] B4A8 | 
[V:4] G,4F,4A,4- | 
[V:1] c2A2B4c2B2 | 
[V:2] f4g8 | 
[V:3] c4d4e4- | 
[V:4] A,4G,4C,4 | 
[V:1] G4A4F4 | 
[V:2] c2B2d2A2B3A | 
[V:3] e4f8 | 
[V:4] E,4D,8 | 
[V:1] G12 | 
[V:2] c8d4 | 
[V:3] e8d4- | 
[V:4] C,8G,4 | 
[V:1] G8A4- | 
[V:2] B8A4 | 
[V:3] d12 | 
[V:4] G,8D,4 | 
[V:1] A2G2E6C2 | 
[V:2] A4G4g4 | 
[V:3] c8G4 | 
[V:4] F,2E,2C,8 | 
[V:1] C4z4z4 | 
[V:2] e4f6e2 | 
[V:3] A8B4 | 
[V:4] z4D,8 | 
[V:1] G8c4 | 
[V:2] e6f2g4 | 
[V:3] c12- | 
[V:4] C,12 | 
[V:1] c4B2A2c2d2 | 
[V:2] a4g2e2f4 | 
[V:3] c4z4z4 | 
[V:4] F,4G,2A,4B,2 | 
[V:1] e4c6B2 | 
[V:2] e12 | 
[V:3] g12- | 
[V:4] C12 | 
[V:1] B8B4 | 
[V:2] d8e4- | 
[V:3] g4g8 | 
[V:4] G,8G,4 | 
[V:1] c6A4F2- | 
[V:2] e4f8 | 
[V:3] c12- | 
[V:4] A,4F,8 | 
[V:1] FEF2G2D2E4 | 
[V:2] z12 | 
[V:3] c4B8 | 
[V:4] A,4G,8 | 
[V:1] F8G4 | 
[V:2] z12 | 
[V:3] c4d4e4 | 
[V:4] F,4_B,2A,2G,4 | 
[V:1] A8B4 | 
[V:2] z4z4g4 | 
[V:3] f4d8 | 
[V:4] F,8G,4 | 
[V:1] c8c2A2 | 
[V:2] g4a2g2e3d | 
[V:3] c12- | 
[V:4] C,4F,2G,2A,4 | 
[V:1] A12 ||  
[V:2] f12 ||  
[V:3] c12 ||  
[V:4] F,12 ||  
[V:1]  [K:C] [K:clef=treble][M:3/1]A6B2c4 | 
[V:2]  [K:C] [K:clef=treble-8][M:3/1]f12- | 
[V:3]  [K:C] [K:clef=treble-8][M:3/1]z12 | 
[V:4]  [K:C] [K:clef=bass][M:3/1]z12 | 
[V:1] d4c4A4 | 
[V:2] f12 | 
[V:3] z12 | 
[V:4] z12 | 
[V:1] B4G8 | 
[V:2] g8e4 | 
[V:3] z12 | 
[V:4] z12 | 
[V:1] A6G2F4 | 
[V:2] f4d8 | 
[V:3] z12 | 
[V:4] z12 | 
[V:1] E2G3FD2E2C2- | 
[V:2] c4B4c4 | 
[V:3] z12 | 
[V:4] z12 | 
[V:1] C2F2G2D2E3D | 
[V:2] A4G8 | 
[V:3] z12 | 
[V:4] z12 | 
[V:1] F4z4F4 | 
[V:2] F8z4 | 
[V:3] z12 | 
[V:4] z12 | 
[V:1] E3CD2E2C4 | 
[V:2] c4B2c4A2 | 
[V:3] z12 | 
[V:4] z12 | 
[V:1] G4c2B2c2d2- | 
[V:2] B2c4G2A2B2 | 
[V:3] z12 | 
[V:4] z12 | 
[V:1] dcA2G2c4B2 | 
[V:2] G2c4e2d4 | 
[V:3] z12 | 
[V:4] z12 | 
[V:1] c4d2e6- | 
[V:2] c2e2f2g2c4 | 
[V:3] z12 | 
[V:4] z12 | 
[V:1] e2d4B2d2c2 | 
[V:2] g4f2g4a2 | 
[V:3] z12 | 
[V:4] z12 | 
[V:1] A2B2G4F2A2- | 
[V:2] f2g4e2d4 | 
[V:3] z12 | 
[V:4] z12 | 
[V:1] AGE2D2G4E2 | 
[V:2] c4B4c3G | 
[V:3] z12 | 
[V:4] z12 | 
[V:1] F2G4c2A2B2 | 
[V:2] A2G2c4d4 | 
[V:3] z12 | 
[V:4] z12 | 
[V:1] c12 | 
[V:2] c12- | 
[V:3] z12 | 
[V:4] z12 | 
[V:1] z12 | 
[V:2] c12- | 
[V:3] z12 | 
[V:4] C,12- | 
[V:1] c3BA2G2A2E2- | 
[V:2] c12 | 
[V:3] z12 | 
[V:4] C,12 | 
[V:1] E4F2G2C4 | 
[V:2] z12 | 
[V:3] z12 | 
[V:4] C3B,A,2G,2A,2E,2- | 
[V:1] B,2C2D2E4C2 | 
[V:2] z12 | 
[V:3] z12 | 
[V:4] E,4F,2G,2C,4 | 
[V:1] D2E2F2G2E4 | 
[V:2] z12 | 
[V:3] z12 | 
[V:4] B,,2C,2D,2E,4C,2 | 
[V:1] F2E2DCB,4E2- | 
[V:2] z12 | 
[V:3] z12 | 
[V:4] D,2E,2F,2G,2E,4 | 
[V:1] E2D3CC4B,2 | 
[V:2] z12 | 
[V:3] z12 | 
[V:4] C,2B,,2E,4D,4 | 
[V:1] C12 | 
[V:2] z12 | 
[V:3] z12 | 
[V:4] C,12 | 
[V:1] z12 | 
[V:2] c6d2e4 | 
[V:3] z12 | 
[V:4] F,4E,2F,2G,4 | 
[V:1] z12 | 
[V:2] f3ef2g2e2c2- | 
[V:3] z12 | 
[V:4] F,2A,4B,2C4 | 
[V:1] z12 | 
[V:2] c2d2c2f4e2 | 
[V:3] z12 | 
[V:4] F,4A,4G,4 | 
[V:1] z12 | 
[V:2] f6g2a4 | 
[V:3] z12 | 
[V:4] F,12- | 
[V:1] z12 | 
[V:2] a4g2g3fe2 | 
[V:3] z12 | 
[V:4] F,4C8 | 
[V:1] z12 | 
[V:2] d4c8- | 
[V:3] z12 | 
[V:4] B,4C4A,4 | 
[V:1] c6B2A4 | 
[V:2] c8d4 | 
[V:3] z12 | 
[V:4] F,8F,4 | 
[V:1] G4A8 | 
[V:2] e4c8 | 
[V:3] z12 | 
[V:4] E,4F,8 | 
[V:1] G2E2F6E2 | 
[V:2] c4A4B4 | 
[V:3] z12 | 
[V:4] C,4D,8 | 
[V:1] E8D2C2 | 
[V:2] c6B2A4 | 
[V:3] z12 | 
[V:4] C,8F,4 | 
[V:1] C6B,6 | 
[V:2] G4F6E2 | 
[V:3] z12 | 
[V:4] E,4D,8 | 
[V:1] C2E2D4C4 | 
[V:2] G4z4e4 | 
[V:3] z12 | 
[V:4] C,4B,,4C,4 | 
[V:1] G4A2B4A2 | 
[V:2] c4f8 | 
[V:3] z12 | 
[V:4] E,4D,8 | 
[V:1] c6A2B2c2 | 
[V:2] e4c2d4c2 | 
[V:3] z12 | 
[V:4] C,4F,4G,2A,2- | 
[V:1] A2G3FF4E2 | 
[V:2] f2d2e2dcB3A | 
[V:3] z12 | 
[V:4] A,2_B,2A,2F,2G,4 | 
[V:1] F12 ||  
[V:2] c12 ||  
[V:3] z12 ||  
[V:4] F,12 ||  
[V:1]  [K:C] [K:clef=treble][M:3/1]c12- | 
[V:2]  [K:C] [K:clef=treble-8][M:3/1]f8f2e2 | 
[V:3]  [K:C] [K:clef=treble-8][M:3/1]a8a4 | 
[V:4]  [K:C] [K:clef=bass][M:3/1]F,12- | 
[V:1] c8d4 | 
[V:2] c4f8 | 
[V:3] a8a4 | 
[V:4] F,12 | 
[V:1] e6d2c4 | 
[V:2] e8e4 | 
[V:3] g12- | 
[V:4] C,12 | 
[V:1] B8c4 | 
[V:2] d4g2f2e4 | 
[V:3] g4z4c4 | 
[V:4] G,8A,4 | 
[V:1] B4G4A2B2 | 
[V:2] d4c8 | 
[V:3] d4e4f4- | 
[V:4] B,4C4F,4- | 
[V:1] c4B2B4A2 | 
[V:2] z4g8 | 
[V:3] f4d8 | 
[V:4] F,4G,8 | 
[V:1] c4A4c4 | 
[V:2] e6f4e2 | 
[V:3] c8z4 | 
[V:4] A,12 | 
[V:1] d4B6G2 | 
[V:2] g12 | 
[V:3] z4d8 | 
[V:4] G,12 | 
[V:1] G12- | 
[V:2] e12 | 
[V:3] c8G4- | 
[V:4] C,12 | 
[V:1] G4E8 | 
[V:2] c12 | 
[V:3] G4g4g4 | 
[V:4] z12 | 
[V:1] C4z4G4 | 
[V:2] G4c2d2e4 | 
[V:3] g4g4c4- | 
[V:4] C,12 | 
[V:1] A4F4A2B2 | 
[V:2] A8z4 | 
[V:3] c4z4d4 | 
[V:4] F,12 | 
[V:1] c8d4 | 
[V:2] a4f2e2g3f | 
[V:3] c8_B4- | 
[V:4] F,4A,4G,4 | 
[V:1] G4A4c4 | 
[V:2] d4e2f4e2 | 
[V:3] B4A8 | 
[V:4] z4C8 | 
[V:1] B4G6F2 | 
[V:2] g4d4e4 | 
[V:3] G8z4 | 
[V:4] D4B,4C4 | 
[V:1] F6E2E2D2 | 
[V:2] c8B4 | 
[V:3] z12 | 
[V:4] A,4G,8 | 
[V:1] F2z2D2C2F2G2 | 
[V:2] c4A4_B2c2- | 
[V:3] z12 | 
[V:4] F,8D,2C,2 | 
[V:1] A2_B2A2F4E2 | 
[V:2] c2_B2c2d2=B4 | 
[V:3] z12 | 
[V:4] F,2G,2A,2_B,2G,4 | 
[V:1] F12 ||  
[V:2] c12 ||  
[V:3] A6B2c4 ||  
[V:4] F,12 ||  
[V:1]  [K:C] [K:clef=treble][M:4/2]F8 | 
[V:2]  [K:C] [K:clef=treble-8][M:4/2]f8- | 
[V:3]  [K:C] [K:clef=treble-8][M:4/2]z8 | 
[V:4]  [K:C] [K:clef=bass][M:4/2]z8 | 
[V:1] A2B2c4- | 
[V:2] f8 | 
[V:3] z8 | 
[V:4] z8 | 
[V:1] c2B2G4 | 
[V:2] e8 | 
[V:3] z8 | 
[V:4] z8 | 
[V:1] A4d4- | 
[V:2] f8 | 
[V:3] z8 | 
[V:4] z8 | 
[V:1] d2c2c4- | 
[V:2] g4e4 | 
[V:3] z8 | 
[V:4] z8 | 
[V:1] c4B2A2 | 
[V:2] d8 | 
[V:3] z8 | 
[V:4] z8 | 
[V:1] c4z4 | 
[V:2] c8 | 
[V:3] z8 | 
[V:4] z8 | 
[V:1] A4G4 | 
[V:2] z8 | 
[V:3] z8 | 
[V:4] z8 | 
[V:1] E2F2G4- | 
[V:2] c8 | 
[V:3] z8 | 
[V:4] z8 | 
[V:1] G2F2D4 | 
[V:2] B8 | 
[V:3] z8 | 
[V:4] z8 | 
[V:1] E2C6- | 
[V:2] c4F4 | 
[V:3] z8 | 
[V:4] z8 | 
[V:1] C2F2D2E2- | 
[V:2] E2F2G4 | 
[V:3] z8 | 
[V:4] z8 | 
[V:1] E2F2D4 | 
[V:2] A2F4_B2 | 
[V:3] z8 | 
[V:4] z8 | 
[V:1] C4E2F2 | 
[V:2] A2c4d2 | 
[V:3] z8 | 
[V:4] z8 | 
[V:1] G2A4B2 | 
[V:2] c4f4 | 
[V:3] z8 | 
[V:4] z8 | 
[V:1] c4A4 | 
[V:2] z2f4d2 | 
[V:3] z8 | 
[V:4] z8 | 
[V:1] G2A4F2- | 
[V:2] e2f2d4 | 
[V:3] z8 | 
[V:4] z8 | 
[V:1] FEE2C2D2 | 
[V:2] c2c4B2 | 
[V:3] z8 | 
[V:4] z8 | 
[V:1] E6C2 | 
[V:2] !fermata!c8- | 
[V:3] z8 | 
[V:4] z8 | 
[V:1] !fermata!C8 | 
[V:2] c8 | 
[V:3] z8 | 
[V:4] z8 | 
[V:1] z8 | 
[V:2] e4f2g2- | 
[V:3] z8 | 
[V:4] z8 | 
[V:1] z8 | 
[V:2] g2e2d4 | 
[V:3] z8 | 
[V:4] z8 | 
[V:1] E4F2G2- | 
[V:2] c4d2e2 | 
[V:3] z8 | 
[V:4] z8 | 
[V:1] G2E2D4 | 
[V:2] c4z2f2 | 
[V:3] z8 | 
[V:4] z8 | 
[V:1] C4D2E2 | 
[V:2] e2a4g2- | 
[V:3] z8 | 
[V:4] z8 | 
[V:1] C4z2F2 | 
[V:2] gfe2d4 | 
[V:3] z8 | 
[V:4] z8 | 
[V:1] E2A4G2- | 
[V:2] c4A2B2 | 
[V:3] z8 | 
[V:4] z8 | 
[V:1] GFE2D4 | 
[V:2] G2c4B2 | 
[V:3] z8 | 
[V:4] z8 | 
[V:1] C4E2F2 | 
[V:2] c4z4 | 
[V:3] z8 | 
[V:4] z8 | 
[V:1] G4C4 | 
[V:2] e2f2g4 | 
[V:3] z8 | 
[V:4] z8 | 
[V:1] z2G2E2C2 | 
[V:2] c4z2g2 | 
[V:3] z8 | 
[V:4] z8 | 
[V:1] z2E2F2G2 | 
[V:2] e2c2z2e2 | 
[V:3] z8 | 
[V:4] z8 | 
[V:1] A2G2c2d2- | 
[V:2] f2g2a2f2 | 
[V:3] z8 | 
[V:4] z8 | 
[V:1] dcc4B2 | 
[V:2] g2e2d4 | 
[V:3] z8 | 
[V:4] z8 | 
[V:1] c6d2 | 
[V:2] c4A2B2 | 
[V:3] z8 | 
[V:4] z8 | 
[V:1] e3cd2e2 | 
[V:2] c4G2c2- | 
[V:3] z8 | 
[V:4] z8 | 
[V:1] c2B2A3G | 
[V:2] c2d3efg | 
[V:3] z8 | 
[V:4] z8 | 
[V:1] G2c2A2B2 | 
[V:2] e2c2d4 | 
[V:3] z8 | 
[V:4] z8 | 
[V:1] !fermata!c8 | 
[V:2] !fermata!c8 | 
[V:3] z8 | 
[V:4] z8 | 
[V:1] z8 | 
[V:2] e6f2 | 
[V:3] z8 | 
[V:4] C8- | 
[V:1] z8 | 
[V:2] g4g4 | 
[V:3] z8 | 
[V:4] C8 | 
[V:1] z8 | 
[V:2] a6g2 | 
[V:3] z8 | 
[V:4] F,8 | 
[V:1] z8 | 
[V:2] e2f2g4 | 
[V:3] z8 | 
[V:4] C8- | 
[V:1] z8 | 
[V:2] c4f4- | 
[V:3] z8 | 
[V:4] C4A,2F,2 | 
[V:1] z8 | 
[V:2] f4e2d2 | 
[V:3] z8 | 
[V:4] G,8 | 
[V:1] z8 | 
[V:2] f6e2 | 
[V:3] z8 | 
[V:4] F,8- | 
[V:1] z8 | 
[V:2] d2c2c4- | 
[V:3] z8 | 
[V:4] F,4E,4 | 
[V:1] z8 | 
[V:2] c2B2A4 | 
[V:3] z8 | 
[V:4] F,6D,2 | 
[V:1] z8 | 
[V:2] G4d4 | 
[V:3] z8 | 
[V:4] E,4F,4 | 
[V:1] z8 | 
[V:2] e2c2c4- | 
[V:3] z8 | 
[V:4] C,4E,4 | 
[V:1] z8 | 
[V:2] c2B2B2A2 | 
[V:3] z8 | 
[V:4] D,8 | 
[V:1] G4E2C2 | 
[V:2] c4G4 | 
[V:3] z8 | 
[V:4] C,8 | 
[V:1] D4C4- | 
[V:2] z4E4 | 
[V:3] z8 | 
[V:4] B,,4C,4 | 
[V:1] C4B,4 | 
[V:2] F6E2 | 
[V:3] z8 | 
[V:4] D,8 | 
[V:1] C8 | 
[V:2] G8 | 
[V:3] z8 | 
[V:4] C,8 | 
[V:1] E2F2G4 | 
[V:2] c8- | 
[V:3] z8 | 
[V:4] z8 | 
[V:1] A8 | 
[V:2] c8 | 
[V:3] z8 | 
[V:4] F,8 | 
[V:1] G4F2E2- | 
[V:2] z8 | 
[V:3] z8 | 
[V:4] G,4A,4- | 
[V:1] E2C2D4 | 
[V:2] z8 | 
[V:3] z8 | 
[V:4] A,4B,4 | 
[V:1] E4C4 | 
[V:2] z8 | 
[V:3] z8 | 
[V:4] C8 | 
[V:1] z2F2G2A2 | 
[V:2] z8 | 
[V:3] z8 | 
[V:4] F,4E,2D,2- | 
[V:1] B2c4A2 | 
[V:2] z8 | 
[V:3] z8 | 
[V:4] D,2C,2F,4 | 
[V:1] c2B2G4 | 
[V:2] c8 | 
[V:3] z8 | 
[V:4] C,8 | 
[V:1] F4E2D2- | 
[V:2] A4_B4 | 
[V:3] z8 | 
[V:4] F,4G,4 | 
[V:1] D2C2F4 | 
[V:2] A4F4 | 
[V:3] z8 | 
[V:4] F,4A,4 | 
[V:1] G4E2D2 | 
[V:2] _B6A2 | 
[V:3] z8 | 
[V:4] G,8 | 
[V:1] F8 ||  
[V:2] c8 ||  
[V:3] z8 ||  
[V:4] F,8 ||  
[V:1]  [K:C] [K:clef=treble][M:4/2]F8 | 
[V:2]  [K:C] [K:clef=treble-8][M:4/2]A8 | 
[V:3]  [K:C] [K:clef=treble-8][M:4/2]c8- | 
[V:4]  [K:C] [K:clef=bass][M:4/2]F,8 | 
[V:1] E8 | 
[V:2] G8 | 
[V:3] c8 | 
[V:4] C,8 | 
[V:1] F4D4 | 
[V:2] F8 | 
[V:3] B8 | 
[V:4] D,8 | 
[V:1] E2F2G4 | 
[V:2] G8 | 
[V:3] c8- | 
[V:4] C,8 | 
[V:1] A4F4 | 
[V:2] z8 | 
[V:3] c8 | 
[V:4] F,2G,2A,4 | 
[V:1] G6F2 | 
[V:2] G8 | 
[V:3] d8 | 
[V:4] _B,8 | 
[V:1] A4z4 | 
[V:2] c6d2 | 
[V:3] e8 | 
[V:4] A,8- | 
[V:1] A2B2c4- | 
[V:2] e4a4 | 
[V:3] c8 | 
[V:4] A,8 | 
[V:1] c2d2e4- | 
[V:2] g6f2 | 
[V:3] z8 | 
[V:4] C8 | 
[V:1] e2d2B4 | 
[V:2] e4d4 | 
[V:3] g4g4 | 
[V:4] z4G,4 | 
[V:1] c6B2 | 
[V:2] c8 | 
[V:3] e4f4 | 
[V:4] A,8 | 
[V:1] B8 | 
[V:2] d4B4 | 
[V:3] g8 | 
[V:4] G,8 | 
[V:1] G8 | 
[V:2] c6G2 | 
[V:3] z8 | 
[V:4] C,8 | 
[V:1] E2F2G2A2 | 
[V:2] A4G4 | 
[V:3] c8 | 
[V:4] z4C,4 | 
[V:1] B3GG4 | 
[V:2] z2G4c2 | 
[V:3] d4e4 | 
[V:4] B,,4C,4 | 
[V:1] z8 | 
[V:2] B2A2c4 | 
[V:3] f4e4 | 
[V:4] D,4C,4 | 
[V:1] A4G4 | 
[V:2] A2B2c4 | 
[V:3] c4G4 | 
[V:4] F,4E,4 | 
[V:1] F2F4E2 | 
[V:2] d8 | 
[V:3] A4B4 | 
[V:4] D,8 | 
[V:1] G8 | 
[V:2] e4c3B | 
[V:3] c4e4- | 
[V:4] C,8- | 
[V:1] C4G4 | 
[V:2] AGG6 | 
[V:3] e4c4 | 
[V:4] C,8- | 
[V:1] E4C4 | 
[V:2] G4g4 | 
[V:3] g4e4 | 
[V:4] C,8 | 
[V:1] z4c4 | 
[V:2] e4c4 | 
[V:3] c4z4 | 
[V:4] z8 | 
[V:1] B4e4- | 
[V:2] e2f2g4 | 
[V:3] g4e4 | 
[V:4] z8 | 
[V:1] e4d4- | 
[V:2] z8 | 
[V:3] g4f4 | 
[V:4] C4D4 | 
[V:1] d4B4 | 
[V:2] z4g4 | 
[V:3] d8 | 
[V:4] B,4G,4 | 
[V:1] c4A4 | 
[V:2] e2f4e2 | 
[V:3] c8 | 
[V:4] A,8 | 
[V:1] B6A2 | 
[V:2] g8 | 
[V:3] z4d4 | 
[V:4] G,8 | 
[V:1] c8 | 
[V:2] e4c4- | 
[V:3] c4A4- | 
[V:4] A,6F,2- | 
[V:1] c4B4 | 
[V:2] c4d2e2 | 
[V:3] A4B4 | 
[V:4] F,2A,2G,4 | 
[V:1] A2A4F2 | 
[V:2] f4d3c | 
[V:3] c4A4 | 
[V:4] F,8 | 
[V:1] G4F4 | 
[V:2] e4A4 | 
[V:3] G4c4- | 
[V:4] E,4F,4 | 
[V:1] E4z4 | 
[V:2] G2c4B2 | 
[V:3] c4e4 | 
[V:4] C,8 | 
[V:1] F2G2A4- | 
[V:2] A4F2G2 | 
[V:3] d8 | 
[V:4] D,8 | 
[V:1] A2B2c4- | 
[V:2] A6B2 | 
[V:3] c8- | 
[V:4] F,6G,2 | 
[V:1] c2A3GF2 | 
[V:2] c4A4 | 
[V:3] c8- | 
[V:4] A,4F,4 | 
[V:1] E2F2G2E2 | 
[V:2] G8 | 
[V:3] c8- | 
[V:4] C,8 | 
[V:1] F8- | 
[V:2] A6F2 | 
[V:3] c8- | 
[V:4] F,8- | 
[V:1] F8 |]  
[V:2] F8 |]  
[V:3] c8 |]  
[V:4] F,8 |]  



